X:1
T:Title
%%score { ( 1 4 5 ) | ( 2 3 ) }
L:1/8
Q:1/4=100
M:4/4
K:C
V:1 treble nm="Grand Piano"
V:4 treble 
V:5 treble 
V:2 bass 
V:3 bass 
V:1
 C2 E>G [Ec]3 [Ec] | [Ec]>[EB] [Ed]>[Ec] [Fc]2 [FB]2 | [DF]2 [^CE]>[DF] [Fd]3 [Fc] | %3
w: Fannie~Birdsall~Bula * * * *|||
 [FB]>[FA] [FG]>[FA] [_EA]2 [G,=EG]2 | [EG]2 [Ge]>[Ec] [EG]3 [EG] | A>A [^GB]>[GB] [CAc]2 c2 | %6
w: |||
 d2 d>d d3 B | B>A D>A [G,G]4 | [G,EG]2 [EA]>[EB] [Ec]3 [EG] | %9
w: |||
 [B,FG]>[B,FA] [B,FG]>[B,FA] [B,FG]2 [Gd]2 | [^Ge]2 [GB]>[GB] c3 A | z4 G4 | G2 F>F z2 z E | %13
w: ||||
 A>A [^GB]>[GB] c2 c2 | c2 B>A G>^F G>e | e2 d2 [Ec]4 |] %16
w: |||
V:2
 C,2 E,>G, [C,G,]3 [C,G,] | [C,G,]>[C,G,] [G,,G,]>[G,,G,] [D,G,]2 [G,,G,]2 | %2
 [B,,G,]2 [G,,G,]>[G,,G,] [B,,G,]3 [C,G,] | [D,G,]>[D,G,] [G,,G,]>[G,,G,] ^F,2 z2 | %4
 [C,C]2 [C,C]>[C,G,] [C,C]3 [C,C] | [F,CF]>[F,C] [E,D]>[E,D] [G,,A,]2[K:treble] [A,E]2 | %6
 [G,B,G]2 [G,B,G]>[G,B,G] [G,B,G]3[K:bass] [G,D] | [D,G,D]>[D,^F,C] [D,F,C]>[D,F,C] z2 F2 | %8
 C,2 [G,,G,]>[G,,G,] G,3 C | D,>D, G,,>G,, D,2 [F,B,]2 | %10
 [E,B,]2 [E,E]>[E,E][K:treble] [A,EA]3 [A,CE] | [D,B,D]>[D,B,D] [D,CD]>[D,CD] [B,D]4 | %12
 [E,C]2 [D,G,B,]>[D,G,B,] C3 C | [F,C]>[F,C] [E,D]>[E,D][K:treble] [A,EA]2 [A,CE]2 | %14
 [^F,C_E]2 [F,CE]>[F,CE] [G,C=E]>[A,C_E][K:treble] [G,C=E]>[G,CG] | %15
 [G,B,G]2 [G,F]2[K:bass] [C,G,]4 |] %16
V:3
 x8 | x8 | x8 | z4 C,4 | x8 | x6[K:treble] x2 | x7[K:bass] x | z4 G,,4 | z4 C,2 G,,2 | x8 | %10
 x4[K:treble] x4 | z4 G,2 z2 | z4 [C,G,]2 C,2 | x4[K:treble] x4 | x6[K:treble] x2 | %15
 x4[K:bass] x4 |] %16
V:4
 x8 | x8 | x8 | x8 | x8 | x8 | x8 | z4 B,2 z2 | x8 | x8 | x8 | G>G ^F>F z2 F,2 | z4 E4 | x8 | x8 | %15
 x8 |] %16
V:5
 x8 | x8 | x8 | x8 | x8 | x8 | x8 | x8 | x8 | x8 | x8 | x8 | z4 z2 G,2 | x8 | x8 | x8 |] %16

